UI/Devices-Sensors/SVG/device-group-filter_outline_24px.svg

<svg width="24" height="24" viewBox="0 0 24 24" fill="none" xmlns="http://www.w3.org/2000/svg">
<path d="M6 16V20C6 20.5304 6.21071 21.0391 6.58579 21.4142C6.96086 21.7893 7.46957 22 8 22H16C16.5304 22 17.0391 21.7893 17.4142 21.4142C17.7893 21.0391 18 20.5304 18 20V16H6ZM16 20H8V18H16V20ZM11.22 6.05C9.66793 6.25534 8.25758 7.0592 7.29 8.29L8.72 9.72C9.08758 9.19014 9.57782 8.757 10.1489 8.45751C10.7201 8.15803 11.3551 8.00106 12 8C12.3377 7.99699 12.6743 8.04073 13 8.13V7.83L11.22 6.05ZM17.82 12.05L15.82 14.05H20V17.05C20.5304 17.05 21.0391 16.8393 21.4142 16.4642C21.7893 16.0891 22 15.5804 22 15.05V12L17.82 12.05ZM8.59 3.41L8 2.83C6.63636 3.42813 5.42351 4.32325 4.45 5.45L5.87 6.87C6.83965 5.70761 8.1192 4.84418 9.56 4.38L8.59 3.41ZM2 12V15C2 15.5304 2.21071 16.0391 2.58579 16.4142C2.96086 16.7893 3.46957 17 4 17V14H11V12H2ZM15 7L10 2H22L17 7V10L15 12V7Z" fill="#0F1621"/>
</svg>

<svg xmlns="http://www.w3.org/2000/svg" width="24" height="24" viewBox="0 0 24 24"><rect width="24" height="24" style="fill:none"/><path d="M6,16v4a2,2,0,0,0,2,2h8a2,2,0,0,0,2-2V16Zm10,4H8V18h8ZM11.22,6.05A6,6,0,0,0,7.29,8.29L8.72,9.72A4,4,0,0,1,12,8a3.66,3.66,0,0,1,1,.13v-.3Zm6.6,6-2,2H20v3a2,2,0,0,0,2-2V12ZM8.59,3.41,8,2.83A10,10,0,0,0,4.45,5.45L5.87,6.87A8,8,0,0,1,9.56,4.38ZM2,12v3a2,2,0,0,0,2,2V14h7V12ZM15,7,10,2H22L17,7v3l-2,2Z"/></svg>
